svgs/sharp-solid/arrow-up-wide-short.svg

<svg xmlns="http://www.w3.org/2000/svg" viewBox="0 0 576 512"><!--! Font Awesome Pro 6.6.0 by @fontawesome - https://fontawesome.com License - https://fontawesome.com/license (Commercial License) Copyright 2024 Fonticons, Inc. --><path d="M320 480l32 0 32 0 0-64-32 0-32 0-32 0 0 64 32 0zm0-128l96 0 32 0 0-64-32 0-96 0-32 0 0 64 32 0zm0-128l160 0 32 0 0-64-32 0-160 0-32 0 0 64 32 0zm0-128l224 0 32 0 0-64-32 0L320 32l-32 0 0 64 32 0zM151.7 58.5L128 32.4l-23.7 26-80 88L2.8 170.2l47.4 43.1 21.5-23.7L96 162.8 96 448l0 32 64 0 0-32 0-285.2 24.3 26.8 21.5 23.7 47.4-43.1-21.5-23.7-80-88z"/></svg>

<svg xmlns="http://www.w3.org/2000/svg" viewBox="0 0 576 512"><!--! Font Awesome Pro 6.4.0 by @fontawesome - https://fontawesome.com License - https://fontawesome.com/license (Commercial License) Copyright 2023 Fonticons, Inc. --><path d="M320 480h32 32V416H352 320 288v64h32zm0-128h96 32V288H416 320 288v64h32zm0-128H480h32V160H480 320 288v64h32zm0-128H544h32V32H544 320 288V96h32zM151.7 58.5L128 32.4l-23.7 26-80 88L2.8 170.2l47.4 43.1 21.5-23.7L96 162.8V448v32h64V448 162.8l24.3 26.8 21.5 23.7 47.4-43.1-21.5-23.7-80-88z"/></svg>
